T: Lads Of Laois, The
M: 4/4
L: 1/8
K: Emin
|:E2EF G2FE |DA, ~A,2 DEFD |1ECEG ADFA |Bgfe dBAF:|2 E2BE dEBE| DEFA B2AF:||:e3e efge |d2ff gfed |^cdef ~g3e| fBdf   gfed |efed BA^GA| BE~E2 Bdef|~=g3e ~f3f |1efed BABd:|2efed BAFD||
